src/img/svg/undraw_futuristic_interface_re_0cm6.svg

<svg xmlns="http://www.w3.org/2000/svg" width="555.5" height="645.54534" viewBox="0 0 555.5 645.54534" xmlns:xlink="http://www.w3.org/1999/xlink"><path d="M38.5,406.77267H1.5v-37c0-6.60004,5.40002-12,12-12H49.5v38c0,6.06543-4.93457,11-11,11Z" fill="#3f3d56"/><path d="M544.5,49.77267h-37V12.77267c0-6.60004,5.40002-12,12-12h36V38.77267c0,6.06543-4.93457,11-11,11Z" fill="#3f3d56"/><g><polygon points="285.24123 629.76828 271.91423 629.76697 265.5745 578.36223 285.24394 578.36359 285.24123 629.76828" fill="#a0616a"/><path d="M285.71033,643.67098l-40.98248-.00156v-.51823c.00058-8.80947,7.14205-15.95078,15.95152-15.95128h.00099l7.48595-5.6792,13.96715,5.68011,3.57752,.00008-.00066,16.47009Z" fill="#2f2e41"/></g><path d="M276.79528,364.46345l-8.79528,30.53655s-19,99.93474-14,113.93474,8.68504,102.06526,8.68504,102.06526h26.01575s3.50394-22.34079,3.40157-25.70302c-.10236-3.36223,5.89764-57.36223-2.10236-65.36223l35-88,55-46-21.56693-26.77026-81.6378,5.29897Z" fill="#2f2e41"/><path d="M404,414v-16l-16-22c-6.59998,0-12,5.39996-12,12v54c0,6.59998,5.40002,12,12,12h54c6.59998,0,12-5.40002,12-12l-22-15h-15c-7.16846,0-13-5.83203-13-13Z" fill="#6c63ff" opacity=".5"/><path d="M481.22,281.50002H154.77957c-10.63086,0-19.2793-8.64893-19.2793-19.28003v-113.43994c0-10.6311,8.64844-19.28003,19.2793-19.28003H481.22c10.63086,0,19.28027,8.64893,19.28027,19.28003v113.43994c0,10.6311-8.64941,19.28003-19.28027,19.28003Z" fill="#6c63ff" opacity=".5"/><path d="M340.78027,260H127.78027c-10.90674,0-19.78027-8.87354-19.78027-19.78027V126.77979c0-10.90674,8.87305-19.77979,19.77979-19.77979H454.21973c10.90674,0,19.78027,8.87354,19.78027,19.78027,0,73.45752-59.76221,133.21973-133.21973,133.21973ZM127.77979,109c-9.80371,0-17.77979,7.97607-17.77979,17.77979v113.43994c0,9.8042,7.97607,17.78027,17.78027,17.78027h213c72.35498,0,131.21973-58.86475,131.21973-131.21973,0-9.8042-7.97607-17.78027-17.78027-17.78027H127.77979Z" fill="#6c63ff"/><g><path d="M367.79989,377.04384l-2.11682-29.96289,16.9478-3.59737,1.11088,31.75826c.66768,.70439,1.24564,1.5161,1.70151,2.42961,2.4794,4.96843,.46162,11.00615-4.50681,13.48554-4.96843,2.4794-11.00615,.46162-13.48554-4.50681-1.58122-3.16859-1.32677-6.7683,.34899-9.60634Z" fill="#a0616a"/><path d="M340.89513,184.92256l-6.52043,4.8595,16.0247,91.3789-2.34273,5.59452,3.12531,2.93852,.95771,7.02766,12.61836,65.27834h19.24195c-.28242-2.26768,5.28057-4.59195,5-7-.32081-2.75336-2.57469-6.91812-2.8952-9.82685-.09924-.90064-.19852-1.80802-.29788-2.72167-.14584-1.34116-.29184-2.69587-.43811-4.06269-.11327-1.05845-.22669-2.12418-.34032-3.19653-2.46013-23.21649-3.47157-49.34159-4.89257-71.9006-1.8116-28.75973-4.28887-51.72352-11.28221-55.47561l-27.95859-22.8935Z" fill="#3f3d56"/></g><path d="M389.53455,628.21239c2.06592,.12937,3.20768-2.43737,1.64468-3.93333l-.1555-.61819c.02047-.04951,.04105-.09897,.06178-.14839,2.08924-4.9818,9.16992-4.94742,11.24139,.04177,1.83859,4.42817,4.17942,8.86389,4.75579,13.54594,.25838,2.0668,.14213,4.17236-.31648,6.20047,4.30807-9.41059,6.57515-19.68661,6.57515-30.02077,0-2.59652-.14213-5.19301-.43275-7.78295-.239-2.11854-.56839-4.2241-.99471-6.31034-2.30575-11.2772-7.29852-22.01825-14.50012-30.98962-3.46197-1.89248-6.34906-4.85065-8.09295-8.39652-.62649-1.27891-1.11739-2.65462-1.34991-4.05618,.39398,.05168,1.48556-5.94866,1.18841-6.3168,.54906-.83317,1.53178-1.24733,2.13144-2.06034,2.98232-4.04341,7.0912-3.33741,9.23621,2.15727,4.58224,2.31266,4.62659,6.14806,1.81495,9.83683-1.78878,2.34682-2.03456,5.52233-3.60408,8.03478,.16151,.20671,.32944,.40695,.4909,.61366,2.96106,3.79788,5.52208,7.88002,7.68104,12.16859-.61017-4.76621,.29067-10.50822,1.82641-14.20959,1.74819-4.21732,5.02491-7.76915,7.91045-11.41501,3.46601-4.37924,10.57337-2.46806,11.18401,3.08332,.00591,.05375,.01166,.10745,.01731,.1612-.4286,.24178-.84849,.49867-1.25864,.76992-2.33949,1.54723-1.53096,5.17386,1.24107,5.60174l.06277,.00967c-.15503,1.54366-.41984,3.07444-.80734,4.57937,3.70179,14.31579-4.29011,19.5299-15.70147,19.76412-.25191,.12916-.49738,.25832-.74929,.38109,1.15617,3.25525,2.07982,6.59447,2.76441,9.97891,.61359,2.99043,1.03991,6.01317,1.27885,9.04888,.29715,3.83006,.27129,7.67959-.05168,11.50323l.01939-.13562c.82024-4.21115,3.10671-8.14462,6.4266-10.87028,4.94561-4.06264,11.93282-5.55869,17.26826-8.82425,2.56833-1.57196,5.85945,.45945,5.41121,3.43708l-.02182,.14261c-.79443,.32289-1.56947,.69755-2.31871,1.11733-.4286,.24184-.84848,.49867-1.25864,.76992-2.33949,1.54729-1.53096,5.17392,1.24107,5.6018l.06282,.00965c.0452,.00646,.08397,.01295,.12911,.01944-1.36282,3.23581-3.26168,6.23922-5.63854,8.82922-2.31463,12.49713-12.25603,13.68282-22.89022,10.04354h-.00648c-1.16259,5.06378-2.86128,10.01127-5.0444,14.72621h-18.02019c-.06463-.20022-.12274-.40692-.18089-.60717,1.6664,.10341,3.34571,.00649,4.98629-.29702-1.33701-1.64059-2.67396-3.29409-4.01097-4.93462-.03229-.0323-.05816-.0646-.08397-.09689-.67817-.8396-1.36282-1.67283-2.04099-2.51246l-.00036-.00102c-.04245-2.57755,.26652-5.14662,.87876-7.63984l.00057-.00035Z" fill="#f2f2f2"/><path d="M187.98319,644.35534c0,.66003,.53003,1.19,1.19006,1.19h253.28998c.65997,0,1.19-.52997,1.19-1.19,0-.65997-.53003-1.19-1.19-1.19H189.17326c-.66003,0-1.19006,.53003-1.19006,1.19Z" fill="#ccc"/><path d="M22.69,0C10.15866,0,0,10.15866,0,22.69V407H2V157.67999C2,71.70001,71.70001,2,157.67999,2l397.68367-.36367-.36367-1.63633H22.69Z" fill="#3f3d56"/><path d="M189,256c0,1.33997-.03998,2.67999-.10999,4h-61.10999c-10.37006,0-18.78003-8.41003-18.78003-18.78003v-56.77997c2.63-.29004,5.29999-.44,8-.44,39.76001,0,72,32.23999,72,72Z" fill="#6c63ff"/><path d="M415.55057,182.99647H220.18172c-3.32953,0-6.03599,2.70647-6.03599,6.03599s2.70647,6.03599,6.03599,6.03599h195.36885c3.32953,0,6.03599-2.70647,6.03599-6.03599s-2.70647-6.03599-6.03599-6.03599Z" fill="#6c63ff"/><path d="M280.75629,149.15202h-60.57457c-3.32953,0-6.03599,2.70647-6.03599,6.03599s2.70647,6.03599,6.03599,6.03599h60.57457c3.32953,0,6.03599-2.70647,6.03599-6.03599s-2.70647-6.03599-6.03599-6.03599Z" fill="#6c63ff"/><g><polygon points="340.24123 629.76828 326.91423 629.76697 320.5745 578.36223 340.24394 578.36359 340.24123 629.76828" fill="#a0616a"/><path d="M340.71033,643.67098l-40.98248-.00156v-.51823c.00058-8.80947,7.14205-15.95078,15.95152-15.95128h.00099l7.48595-5.6792,13.96715,5.68011,3.57752,.00008-.00066,16.47009Z" fill="#2f2e41"/></g><path d="M312.5,376.5l7,61-15.5,63.5,13.5,110.5,25,2s12-81,1-109l28-110-21-12-38-6Z" fill="#2f2e41"/><path d="M338.58268,170.38583c-4.41168-4.70954-2.90076-9.00038-9.72151-10.20274-4.62394-.8151-10.18921,.00239-14.92426-.00199-11.90003-.011-13.68894,6.56911-20.54001,15.31106-17.64659,22.517-1.22894,40.5864-5.39689,67.50784-3.87262,25.01391,6.50628,38.63621,1.90945,63.71755-2.18814,11.93899-6.42969,28.75043-13.85156,42.48065-4.09814,7.58142-6.06348,16.40118-5.05811,24.80182,.88965,7.43469,96.90692,8.30154,99.56385,6.47223,3.12865-2.1541,2.07062-6.77208,2.37615-9.98945,.82773-8.71622,1.66982-14.82232-.42325-23.72477-1.96683-8.36553-1.93008-18.08568-1.95748-26.73193-.02642-8.33578-11.7675,5.42562-11.08544-2.89646,.86991-10.61412,2.59475-20.99827,4.49475-31.51597,1.47061-8.14074,2.04693-16.50603,4.20764-24.47678,2.48895-9.1816,5.45647-17.2585,5.55628-26.88836,.07769-7.49552,1.88667-17.97407-1.09344-24.84144-4.39014-10.11665-13.24348-19.22664-20.71213-27.3296-3.71373-4.02914-7.40085-6.65144-11.64325-9.99088" fill="#3f3d56"/><g><path d="M187.84909,216.48957l27.0348,13.09105-5.32361,16.48721-28.0904-14.85767c-.94338,.22803-1.93511,.3248-2.9543,.265-5.54319-.32527-9.77319-5.08263-9.44792-10.62582,.32527-5.54319,5.08263-9.77319,10.62582-9.44792,3.53514,.20744,6.52962,2.22132,8.15562,5.08816Z" fill="#a0616a"/><path d="M270.77531,291.21231c-2.58952-1.37172-42.03513-26.52723-62.77531-38.21231-.38867-.21898-3.06582,1.21536-3.43935,1.0049-.57014-.32123-.02813-2.70485-.56065-3.0049-1.15483-.65069-3.31193,.82288-4.26886,.28365-3.46532-1.95273-2.73114-10.28365-2.73114-10.28365l7-17,11.44396-.36523,2.55604,4.36523,5.42587-.65374,3.57413,4.65374,41.19216,16.1621c1.60107-21.47809,10.18994-39.19672,19.49414-56.53049l3.76092,.7105c9.48421,1.79183,15.81038,10.81843,14.25842,20.34483l-10.86243,66.67644c-1.05159,6.2035-5.4409,11.20585-11.45502,13.05439-4.34598,1.33643-8.85531,.78444-12.61288-1.20547Z" fill="#3f3d56"/></g><circle cx="311.67051" cy="123.25689" r="30.60491" fill="#a0616a"/><path d="M345.63943,124.18752c-1.06982-.42999-2.14014-.78998-3.06982-1.01996,5.2518,6.61167-3.61409,12.41385-4.98973,19.1804,.11451,5.37162-2.82238,7.80842-7.96047,9.27956l.12012-.41998c-41.7908,10.70492,2.29312-24.92919-30.38049-25.91102-4.97986,.29102,1.67062-15.3667-3.44958-14.57897-13,2-13.60607,.62565-14.99939,10.00114-2.53089,.82882-6.00061-3.00114-5.59046-7.00114-.92626-1.6833-3.34658-.60581-4.32001-3.1603-1.03009-1.94968-2.99005-14.69968,1.47968-8.73972,.2957-4.06876-.8552-12.38692,4.22021-5.27997-.66048-3.23315,2.14591-1.83304,3.31982,.08997,.83008-1.89001,1.66016-3.76996,2.47998-5.65997-.22998,.84998-.08008,1.77997,.34033,2.62,2.35874-5.01123,5.96-5.46511,11.57959-6.88-.06542,1.5351-.02999,3.33123,.18018,4.71997,6.52529-10.81121,22.32813-7.79075,28.62926,1.76054,3.99323,.91177,5.6808-.4705,9.6808,.5295,10.74785,2.68696,15.66116,19.25956,12.72998,30.46997Z" fill="#2f2e41"/><path d="M427,413h37v-37c0-6.60004-5.40002-12-12-12h-36v38c0,6.06543,4.93457,11,11,11Z" fill="#6c63ff"/><ellipse cx="127.70614" cy="55.21025" rx="8.45661" ry="8.64507" fill="#3f3d56"/><ellipse cx="156.91989" cy="55.21025" rx="8.45661" ry="8.64507" fill="#3f3d56"/><ellipse cx="186.13364" cy="55.21025" rx="8.45661" ry="8.64507" fill="#3f3d56"/><path d="M393.5,84.27267c-.82715,0-1.5,.67285-1.5,1.5v10c0,.82715,.67285,1.5,1.5,1.5h10c.82715,0,1.5-.67285,1.5-1.5v-10c0-.82715-.67285-1.5-1.5-1.5h-10Z" fill="#6c63ff"/><path d="M416.5,84.27267c-.82715,0-1.5,.67285-1.5,1.5v10c0,.82715,.67285,1.5,1.5,1.5h10c.82715,0,1.5-.67285,1.5-1.5v-10c0-.82715-.67285-1.5-1.5-1.5h-10Z" fill="#6c63ff"/><path d="M439.5,84.27267c-.82715,0-1.5,.67285-1.5,1.5v10c0,.82715,.67285,1.5,1.5,1.5h10c.82715,0,1.5-.67285,1.5-1.5v-10c0-.82715-.67285-1.5-1.5-1.5h-10Z" fill="#6c63ff"/></svg>

<svg width="556" height="646" viewBox="0 0 556 646" fill="none" xmlns="http://www.w3.org/2000/svg">
<g clip-path="url(#clip0_2_2)">
<path d="M38.5 406.773H1.5V369.773C1.5 363.173 6.90002 357.773 13.5 357.773H49.5V395.773C49.5 401.838 44.5654 406.773 38.5 406.773Z" fill="#2F2E41"/>
<path d="M544.5 49.7727H507.5V12.7727C507.5 6.17263 512.9 0.772675 519.5 0.772675H555.5V38.7727C555.5 44.8381 550.565 49.7727 544.5 49.7727Z" fill="#2F2E41"/>
<path d="M285.241 629.768L271.914 629.767L265.574 578.362L285.244 578.364L285.241 629.768Z" fill="#DD7272"/>
<path d="M285.71 643.671L244.728 643.669V643.151C244.728 634.342 251.87 627.2 260.679 627.2H260.68L268.166 621.521L282.133 627.201L285.711 627.201L285.71 643.671V643.671Z" fill="#2F2E41"/>
<path d="M276.795 364.463L268 395C268 395 249 494.935 254 508.935C259 522.935 262.685 611 262.685 611H288.701C288.701 611 292.205 588.659 292.102 585.297C292 581.935 298 527.935 290 519.935L325 431.935L380 385.935L358.433 359.164L276.795 364.463L276.795 364.463Z" fill="#2F2E41"/>
<path opacity="0.5" d="M404 414V398L388 376C381.4 376 376 381.4 376 388V442C376 448.6 381.4 454 388 454H442C448.6 454 454 448.6 454 442L432 427H417C409.832 427 404 421.168 404 414Z" fill="#7CB3CA"/>
<path opacity="0.5" d="M481.22 281.5H154.78C144.149 281.5 135.5 272.851 135.5 262.22V148.78C135.5 138.149 144.149 129.5 154.78 129.5H481.22C491.851 129.5 500.5 138.149 500.5 148.78V262.22C500.5 272.851 491.851 281.5 481.22 281.5Z" fill="#BBAACC"/>
<path d="M340.78 260H127.78C116.874 260 108 251.126 108 240.22V126.78C108 115.873 116.873 107 127.78 107H454.22C465.126 107 474 115.874 474 126.78C474 200.238 414.238 260 340.78 260ZM127.78 109C117.976 109 110 116.976 110 126.78V240.22C110 250.024 117.976 258 127.78 258H340.78C413.135 258 472 199.135 472 126.78C472 116.976 464.024 109 454.22 109H127.78Z" fill="#0367A6"/>
<path d="M367.8 377.044L365.683 347.081L382.631 343.484L383.742 375.242C384.409 375.946 384.987 376.758 385.443 377.671C387.923 382.64 385.905 388.678 380.936 391.157C375.968 393.636 369.93 391.619 367.451 386.65C365.87 383.482 366.124 379.882 367.8 377.044V377.044Z" fill="#DD7272"/>
<path d="M340.895 184.923L334.375 189.782L350.399 281.161L348.057 286.755L351.182 289.694L352.14 296.722L364.758 362H384C383.718 359.732 389.281 357.408 389 355C388.679 352.247 386.425 348.082 386.105 345.173C386.006 344.273 385.906 343.365 385.807 342.451C385.661 341.11 385.515 339.756 385.369 338.389C385.256 337.33 385.142 336.265 385.029 335.192C382.568 311.976 381.557 285.851 380.136 263.292C378.324 234.532 375.847 211.568 368.854 207.816L340.895 184.923L340.895 184.923Z" fill="#3F3D56"/>
<path d="M389.535 628.212C391.6 628.342 392.742 625.775 391.179 624.279L391.024 623.661C391.044 623.611 391.065 623.562 391.086 623.512C393.175 618.531 400.255 618.565 402.327 623.554C404.165 627.982 406.506 632.418 407.083 637.1C407.341 639.167 407.225 641.273 406.766 643.301C411.074 633.89 413.341 623.614 413.341 613.28C413.341 610.683 413.199 608.087 412.909 605.497C412.67 603.378 412.34 601.273 411.914 599.187C409.608 587.909 404.615 577.168 397.414 568.197C393.952 566.304 391.065 563.346 389.321 559.8C388.694 558.522 388.203 557.146 387.971 555.744C388.365 555.796 389.456 549.796 389.159 549.427C389.708 548.594 390.691 548.18 391.291 547.367C394.273 543.324 398.382 544.03 400.527 549.524C405.109 551.837 405.154 555.673 402.342 559.361C400.553 561.708 400.307 564.884 398.738 567.396C398.899 567.603 399.067 567.803 399.229 568.01C402.19 571.808 404.751 575.89 406.91 580.178C406.3 575.412 407.2 569.67 408.736 565.969C410.484 561.751 413.761 558.2 416.647 554.554C420.113 550.174 427.22 552.086 427.831 557.637C427.837 557.691 427.842 557.744 427.848 557.798C427.419 558.04 426.999 558.297 426.589 558.568C424.25 560.115 425.058 563.742 427.83 564.17L427.893 564.18C427.738 565.723 427.473 567.254 427.086 568.759C430.788 583.075 422.796 588.289 411.384 588.523C411.132 588.652 410.887 588.781 410.635 588.904C411.791 592.159 412.715 595.499 413.399 598.883C414.013 601.873 414.439 604.896 414.678 607.932C414.975 611.762 414.95 615.611 414.627 619.435L414.646 619.3C415.466 615.088 417.753 611.155 421.073 608.429C426.018 604.367 433.005 602.871 438.341 599.605C440.909 598.033 444.2 600.064 443.752 603.042L443.73 603.185C442.936 603.508 442.161 603.882 441.412 604.302C440.983 604.544 440.563 604.801 440.153 605.072C437.813 606.619 438.622 610.246 441.394 610.674L441.457 610.683C441.502 610.69 441.541 610.696 441.586 610.703C440.223 613.939 438.324 616.942 435.947 619.532C433.633 632.029 423.691 633.215 413.057 629.576H413.051C411.888 634.639 410.189 639.587 408.006 644.302H389.986C389.921 644.102 389.863 643.895 389.805 643.695C391.472 643.798 393.151 643.701 394.792 643.398C393.454 641.757 392.118 640.103 390.781 638.463C390.748 638.431 390.722 638.398 390.697 638.366C390.018 637.526 389.334 636.693 388.656 635.854L388.655 635.853C388.613 633.275 388.922 630.706 389.534 628.213L389.535 628.212V628.212Z" fill="#CCCCCC"/>
<path d="M187.983 644.355C187.983 645.015 188.513 645.545 189.173 645.545H442.463C443.123 645.545 443.653 645.015 443.653 644.355C443.653 643.695 443.123 643.165 442.463 643.165H189.173C188.513 643.165 187.983 643.695 187.983 644.355H187.983Z" fill="#CCCCCC"/>
<path d="M22.69 0C10.1587 0 0 10.1587 0 22.69V407H2V157.68C2 71.7 71.7 2 157.68 2L555.364 1.63633L555 0H22.69Z" fill="#2E3441"/>
<path d="M188 255C188 256.34 187.96 257.68 187.89 259H126.78C116.41 259 108 249.87 108 239.5V183.44C110.63 183.15 113.3 183 116 183C155.76 183 188 215.24 188 255Z" fill="#7CB3CA"/>
<path d="M415.551 182.996H220.182C216.852 182.996 214.146 185.703 214.146 189.032C214.146 192.362 216.852 195.068 220.182 195.068H415.551C418.88 195.068 421.587 192.362 421.587 189.032C421.587 185.703 418.88 182.996 415.551 182.996Z" fill="#7CB3CA"/>
<path d="M280.756 149.152H220.182C216.852 149.152 214.146 151.858 214.146 155.188C214.146 158.518 216.852 161.224 220.182 161.224H280.756C284.086 161.224 286.792 158.518 286.792 155.188C286.792 151.858 284.086 149.152 280.756 149.152Z" fill="#7CB3CA"/>
<path d="M340.241 629.768L326.914 629.767L320.574 578.362L340.244 578.364L340.241 629.768Z" fill="#DD7272"/>
<path d="M340.71 643.671L299.728 643.669V643.151C299.728 634.342 306.87 627.2 315.679 627.2H315.68L323.166 621.521L337.133 627.201L340.711 627.201L340.71 643.671V643.671Z" fill="#2F2E41"/>
<path d="M312.5 376.5L319.5 437.5L304 501L317.5 611.5L342.5 613.5C342.5 613.5 354.5 532.5 343.5 504.5L371.5 394.5L350.5 382.5L312.5 376.5Z" fill="#2F2E41"/>
<path d="M338.583 170.386C334.171 165.676 335.682 161.385 328.861 160.183C324.237 159.368 318.672 160.185 313.937 160.181C302.037 160.17 300.248 166.75 293.397 175.492C275.75 198.009 292.168 216.079 288 243C284.127 268.014 294.506 281.636 289.909 306.718C287.721 318.657 283.48 335.468 276.058 349.198C271.96 356.78 269.994 365.599 271 374C271.889 381.435 367.907 382.302 370.564 380.472C373.692 378.318 372.634 373.7 372.94 370.483C373.768 361.767 374.61 355.66 372.517 346.758C370.55 338.392 370.586 328.672 370.559 320.026C370.533 311.69 358.792 325.452 359.474 317.13C360.344 306.516 362.068 296.131 363.968 285.614C365.439 277.473 366.015 269.108 368.176 261.137C370.665 251.955 373.632 243.878 373.732 234.249C373.81 226.753 375.619 216.274 372.639 209.407C368.249 199.29 359.395 190.18 351.927 182.077C348.213 178.048 344.526 175.426 340.283 172.087" fill="#3F3D56"/>
<path d="M187.849 216.49L214.884 229.581L209.56 246.068L181.47 231.21C180.527 231.438 179.535 231.535 178.516 231.475C172.972 231.15 168.742 226.393 169.068 220.849C169.393 215.306 174.15 211.076 179.693 211.401C183.229 211.609 186.223 213.623 187.849 216.49L187.849 216.49Z" fill="#DD7272"/>
<path d="M270.775 291.212C268.186 289.841 228.74 264.685 208 253C207.611 252.781 204.934 254.215 204.561 254.005C203.991 253.684 204.533 251.3 204 251C202.845 250.349 200.688 251.823 199.731 251.284C196.266 249.331 197 241 197 241L204 224L215.444 223.635L218 228L223.426 227.346L227 232L268.192 248.162C269.793 226.684 278.382 208.965 287.686 191.632L291.447 192.342C300.931 194.134 307.258 203.161 305.706 212.687L294.843 279.363C293.792 285.567 289.402 290.569 283.388 292.418C279.042 293.754 274.533 293.202 270.775 291.212V291.212Z" fill="#3F3D56"/>
<path d="M311.671 153.862C328.573 153.862 342.275 140.16 342.275 123.257C342.275 106.354 328.573 92.652 311.671 92.652C294.768 92.652 281.066 106.354 281.066 123.257C281.066 140.16 294.768 153.862 311.671 153.862Z" fill="#DD7272"/>
<path d="M345.639 124.188C344.57 123.758 343.499 123.398 342.57 123.168C347.821 129.779 338.956 135.581 337.58 142.348C337.694 147.72 334.758 150.156 329.619 151.628L329.74 151.208C287.949 161.912 332.033 126.278 299.359 125.297C294.379 125.588 301.03 109.93 295.909 110.718C282.909 112.718 282.303 111.343 280.91 120.719C278.379 121.548 274.909 117.718 275.32 113.718C274.393 112.034 271.973 113.112 271 110.557C269.97 108.608 268.01 95.8576 272.479 101.818C272.775 97.7488 271.624 89.4306 276.7 96.5376C276.039 93.3044 278.845 94.7045 280.019 96.6275C280.849 94.7375 281.679 92.8576 282.499 90.9676C282.269 91.8175 282.419 92.7475 282.84 93.5876C285.198 88.5763 288.8 88.1224 294.419 86.7076C294.354 88.2427 294.389 90.0388 294.599 91.4275C301.125 80.6163 316.928 83.6368 323.229 93.1881C327.222 94.0998 328.909 92.7176 332.909 93.7176C343.657 96.4045 348.571 112.977 345.639 124.188V124.188Z" fill="#2F2E41"/>
<path d="M427 413H464V376C464 369.4 458.6 364 452 364H416V402C416 408.065 420.935 413 427 413Z" fill="#7CB3CA"/>
<path d="M156.92 63.8553C161.59 63.8553 165.376 59.9848 165.376 55.2103C165.376 50.4357 161.59 46.5652 156.92 46.5652C152.249 46.5652 148.463 50.4357 148.463 55.2103C148.463 59.9848 152.249 63.8553 156.92 63.8553Z" fill="#0367A6"/>
<path d="M186.134 63.8553C190.804 63.8553 194.59 59.9848 194.59 55.2103C194.59 50.4357 190.804 46.5652 186.134 46.5652C181.463 46.5652 177.677 50.4357 177.677 55.2103C177.677 59.9848 181.463 63.8553 186.134 63.8553Z" fill="#0367A6"/>
<path d="M393.5 84.2727C392.673 84.2727 392 84.9455 392 85.7727V95.7727C392 96.5998 392.673 97.2727 393.5 97.2727H403.5C404.327 97.2727 405 96.5998 405 95.7727V85.7727C405 84.9455 404.327 84.2727 403.5 84.2727H393.5Z" fill="#7CB3CA"/>
<path d="M416.5 84.2727C415.673 84.2727 415 84.9455 415 85.7727V95.7727C415 96.5998 415.673 97.2727 416.5 97.2727H426.5C427.327 97.2727 428 96.5998 428 95.7727V85.7727C428 84.9455 427.327 84.2727 426.5 84.2727H416.5Z" fill="#7CB3CA"/>
<path d="M439.5 84.2727C438.673 84.2727 438 84.9455 438 85.7727V95.7727C438 96.5998 438.673 97.2727 439.5 97.2727H449.5C450.327 97.2727 451 96.5998 451 95.7727V85.7727C451 84.9455 450.327 84.2727 449.5 84.2727H439.5Z" fill="#7CB3CA"/>
</g>
<defs>
<clipPath id="clip0_2_2">
<rect width="555.5" height="645.545" fill="white"/>
</clipPath>
</defs>
</svg>
